client/public/img/game/shared/particles/ceiling_particle.svg

<?xml version="1.0" encoding="UTF-8" standalone="no"?>
<svg
   width="140.17679"
   height="199.29922"
   viewBox="0 0 37.088441 52.731255"
   version="1.1"
   id="svg2430"
   xml:space="preserve"
   xmlns="http://www.w3.org/2000/svg"
   xmlns:svg="http://www.w3.org/2000/svg"><defs
     id="defs2424" /><path
     d=""
     fill="#1c71d8"
     stroke="#0d3565"
     stroke-width="2.81101"
     id="path3511"
     style="mix-blend-mode:normal;fill-rule:nonzero;stroke-linecap:butt;stroke-linejoin:miter;stroke-miterlimit:10;stroke-dasharray:none;stroke-dashoffset:0" /><path
     d="M 6.2938646,5.8377028 7.2993266,15.316195 1.9258428,9.8088178 1.1252507,13.078503 17.490276,43.213441 23.2243,50.221753 24.882669,39.410278 29.56727,43.829556 26.90385,35.017312 34.379944,39.296703 14.113573,1.9777261 9.3664796,1.2910392 12.626992,11.320894 Z"
     style="fill:#ffffff;stroke:#656565;stroke-width:2.11667;stroke-linecap:square;stroke-dasharray:none;stroke-opacity:1;fill-opacity:1"
     id="path3" /></svg>

<svg xmlns="http://www.w3.org/2000/svg" xml:space="preserve" width="140.177" height="199.299" viewBox="0 0 37.088 52.731"><path d="m6.294 5.838 1.005 9.478L1.926 9.81l-.8 3.27L17.49 43.213l5.734 7.009 1.659-10.812 4.684 4.42-2.663-8.813 7.476 4.28-20.266-37.32-4.748-.686 3.261 10.03Z" style="fill:#fff;stroke:#656565;stroke-width:2.11667;stroke-linecap:square;stroke-dasharray:none;stroke-opacity:1;fill-opacity:1"/></svg>
